X: 13
T:Trip to Windsor
C:Dan R. MacDonald
O:Cape Breton, N.S.
M:C|
L:1/8
K:A
"A"A/2A/2AAB Acea|"F#m"f/2f/2ffa "C#m"fece| "A"agfe fgaf|"E"ecBc AFEF|
"A"A/2A/2AAB Acea|"F#m"f/2f/2ffa "C#m"fece| "A"agfe fgaf| "E"ecBa "C#m"cAAc||
|: "A"efec efae| "F#m"((3fga) ec "Bm"BAcB| "A"AFEC EFAE| "F#m"((3FGA) EC "Bm"B,A,CB,|
"A"A,2 CE FECE|"E"AEcB Aceg| "A"agfe fgaf|[1 "E"ecBa "C#m"cAAc :|[2 "E"ecBc "A"A4||
